img/award.svg

<svg width="48" height="48" viewBox="0 0 48 48" fill="none" xmlns="http://www.w3.org/2000/svg">
<g clip-path="url(#clip0)">
<path d="M46.967 22.2534C50.602 35.3754 44.314 48.0004 33.295 48.0004C27.198 48.0004 18.5 47.0004 14.898 38.3374C11.427 29.9904 0.5 37.5004 0 20.2534C0 6.00042 20.876 -7.66358 26.668 5.22642C32.46 18.1154 43.333 9.13142 46.968 22.2534H46.967Z" fill="#E8F3FE"/>
<path d="M21.338 12.0002C21.338 12.0002 19.655 11.9602 18.706 13.0162C17.758 14.0712 17.903 15.8252 17.903 15.8252C17.903 15.8252 19.586 15.8682 20.535 14.8112C21.484 13.7542 21.338 12.0012 21.338 12.0012V12.0002ZM26.66 12.0002C26.66 12.0002 26.515 13.7552 27.463 14.8112C28.411 15.8672 30.093 15.8252 30.093 15.8252C30.093 15.8252 30.24 14.0722 29.292 13.0152C28.343 11.9602 26.66 12.0002 26.66 12.0002ZM15.463 13.1932C15.463 13.1932 14.349 14.5132 14.512 15.9522C14.675 17.3902 16.052 18.4022 16.052 18.4022L16.059 18.3922C16.349 18.6442 17.419 19.4872 18.597 19.3652C19.976 19.2222 20.97 17.8002 20.97 17.8002C20.97 17.8002 19.728 16.6122 18.35 16.7552C17.564 16.8372 16.912 17.3302 16.49 17.7422C16.78 17.2212 17.094 16.4542 17.003 15.6422C16.84 14.2032 15.463 13.1942 15.463 13.1942V13.1932ZM32.536 13.1932C32.536 13.1932 31.159 14.2052 30.996 15.6432C30.903 16.4562 31.216 17.2212 31.509 17.7422C31.086 17.3292 30.434 16.8372 29.649 16.7552C28.271 16.6122 27.028 17.8022 27.028 17.8022C27.028 17.8022 28.023 19.2242 29.401 19.3672C30.578 19.4892 31.649 18.6432 31.939 18.3932L31.946 18.4032C31.946 18.4032 33.323 17.3902 33.486 15.9522C33.65 14.5122 32.536 13.1932 32.536 13.1932ZM12.768 18.6142C12.768 18.6142 12.086 20.2242 12.654 21.5442C13.222 22.8662 14.826 23.3982 14.826 23.3982L14.833 23.3802C15.193 23.4952 16.491 23.8432 17.533 23.2572C18.751 22.5702 19.145 20.8592 19.145 20.8592C19.145 20.8592 17.562 20.2612 16.342 20.9482C15.752 21.2802 15.359 21.8512 15.107 22.3532C15.197 21.7972 15.215 21.1032 14.942 20.4692C14.375 19.1482 12.768 18.6142 12.768 18.6142ZM35.23 18.6142C35.23 18.6142 33.624 19.1482 33.056 20.4692C32.784 21.1012 32.802 21.7972 32.891 22.3532C32.639 21.8512 32.246 21.2802 31.656 20.9482C30.436 20.2612 28.853 20.8592 28.853 20.8592C28.853 20.8592 29.247 22.5712 30.466 23.2592C31.507 23.8442 32.805 23.4972 33.166 23.3822L33.172 23.4002C33.172 23.4002 34.777 22.8662 35.344 21.5452C35.913 20.2232 35.23 18.6142 35.23 18.6142ZM18.536 23.9542C18.536 23.9542 16.892 24.3252 16.205 25.5842C15.874 26.1902 15.829 26.8902 15.868 27.4542C15.665 26.9322 15.33 26.3312 14.781 25.9422C13.633 25.1302 12 25.5582 12 25.5582C12 25.5582 12.226 27.3022 13.374 28.1132C14.521 28.9262 16.156 28.4992 16.156 28.4992L16.153 28.4832C16.513 28.3832 17.796 27.9612 18.383 26.8832C19.069 25.6252 18.536 23.9552 18.536 23.9552V23.9542ZM29.462 23.9542C29.462 23.9542 28.93 25.6252 29.616 26.8842C30.204 27.9612 31.487 28.3842 31.847 28.4842L31.844 28.4992C31.844 28.4992 33.479 28.9272 34.626 28.1152C35.774 27.3032 36 25.5582 36 25.5582C36 25.5582 34.364 25.1302 33.217 25.9422C32.669 26.3322 32.334 26.9322 32.132 27.4552C32.172 26.8902 32.126 26.1902 31.795 25.5832C31.108 24.3252 29.462 23.9552 29.462 23.9552V23.9542ZM19.858 27.3842C19.858 27.3842 18.321 28.1022 17.898 29.4802C17.658 30.2662 17.83 31.0862 18.023 31.6552C17.682 31.1682 17.137 30.5622 16.387 30.3272C15.06 29.9112 13.624 30.8302 13.624 30.8302C13.624 30.8302 14.338 32.4232 15.665 32.8402C16.82 33.2012 18 32.5842 18.302 32.4102C18.893 33.0532 19.6 33.4852 20.356 33.7782C20.097 33.9882 19.868 34.2392 19.704 34.5642C19.6827 34.5986 19.6637 34.6344 19.647 34.6712L19.638 34.6872C19.5635 34.8594 19.5409 35.0496 19.5729 35.2345C19.6049 35.4194 19.69 35.591 19.818 35.7282C19.9579 35.8774 20.1464 35.9718 20.3497 35.9945C20.5529 36.0172 20.7576 35.9668 20.927 35.8522C21.0718 35.7541 21.1856 35.6168 21.255 35.4562C21.34 35.2592 21.575 35.0662 22.169 34.8902C22.64 34.7502 23.295 34.6552 23.999 34.5572C24.703 34.6552 25.358 34.7502 25.829 34.8902C26.422 35.0662 26.658 35.2602 26.743 35.4562H26.745C26.815 35.6182 26.929 35.7562 27.072 35.8522C27.2137 35.9482 27.3808 35.9997 27.552 36.0002C27.6696 35.9997 27.786 35.9754 27.8939 35.9286C28.0019 35.8819 28.0992 35.8137 28.18 35.7282C28.3095 35.5919 28.3957 35.4202 28.4275 35.2349C28.4594 35.0496 28.4355 34.859 28.359 34.6872H28.36L28.352 34.6712C28.3346 34.6322 28.3145 34.5945 28.292 34.5582C28.1334 34.2549 27.9117 33.9889 27.642 33.7782C28.398 33.4852 29.105 33.0532 29.696 32.4092C29.996 32.5832 31.176 33.2032 32.333 32.8412C33.66 32.4252 34.376 30.8312 34.376 30.8312C34.376 30.8312 32.94 29.9132 31.613 30.3292C30.863 30.5642 30.316 31.1702 29.975 31.6572C30.168 31.0872 30.341 30.2652 30.1 29.4812C29.677 28.1012 28.14 27.3842 28.14 27.3842C28.14 27.3842 27.29 28.9042 27.713 30.2822C27.833 30.6702 28.041 31.0002 28.277 31.2822L28.275 31.2832C27.37 32.1072 25.875 32.4182 24.299 32.6382L23.999 32.6802L23.699 32.6382C22.123 32.4182 20.627 32.1052 19.721 31.2812C19.957 30.9992 20.168 30.6692 20.287 30.2812C20.71 28.9022 19.858 27.3842 19.858 27.3842Z" fill="#2C70C1"/>
</g>
<defs>
<clipPath id="clip0">
<rect width="48" height="48" fill="white"/>
</clipPath>
</defs>
</svg>

<svg width="48" height="48" fill="none" xmlns="http://www.w3.org/2000/svg"><g clip-path="url(#clip0)"><path d="M46.967 22.253C50.602 35.375 44.314 48 33.295 48c-6.097 0-14.795-1-18.397-9.663C11.427 29.99.5 37.5 0 20.253 0 6 20.876-7.664 26.668 5.226c5.792 12.89 16.665 3.905 20.3 17.027h-.001z" fill="#E8F3FE"/><path d="M21.338 12s-1.683-.04-2.632 1.016c-.948 1.055-.803 2.81-.803 2.81s1.683.042 2.632-1.015c.949-1.057.803-2.81.803-2.81zm5.322 0s-.145 1.755.803 2.811c.948 1.056 2.63 1.014 2.63 1.014s.147-1.753-.801-2.81C28.343 11.96 26.66 12 26.66 12zm-11.197 1.193s-1.114 1.32-.951 2.76c.163 1.437 1.54 2.45 1.54 2.45l.007-.01c.29.251 1.36 1.094 2.538.972 1.379-.143 2.373-1.565 2.373-1.565s-1.242-1.188-2.62-1.045c-.786.082-1.438.575-1.86.987.29-.52.604-1.288.513-2.1-.163-1.439-1.54-2.448-1.54-2.448zm17.073 0s-1.377 1.012-1.54 2.45c-.093.813.22 1.578.513 2.1-.423-.414-1.075-.906-1.86-.988-1.378-.143-2.621 1.047-2.621 1.047s.995 1.422 2.373 1.565c1.177.122 2.248-.724 2.538-.974l.007.01s1.377-1.013 1.54-2.45c.164-1.44-.95-2.76-.95-2.76zm-19.768 5.421s-.682 1.61-.114 2.93c.568 1.322 2.172 1.854 2.172 1.854l.007-.018c.36.115 1.658.463 2.7-.123 1.218-.687 1.612-2.398 1.612-2.398s-1.583-.598-2.803.09c-.59.331-.983.902-1.235 1.404.09-.556.108-1.25-.165-1.884-.567-1.32-2.174-1.855-2.174-1.855zm22.462 0s-1.606.534-2.174 1.855c-.272.632-.254 1.328-.165 1.884-.252-.502-.645-1.073-1.235-1.405-1.22-.687-2.803-.089-2.803-.089s.394 1.712 1.613 2.4c1.041.585 2.339.238 2.7.123l.006.018s1.605-.534 2.172-1.855c.569-1.322-.114-2.93-.114-2.93zm-16.694 5.34s-1.644.371-2.331 1.63c-.331.606-.376 1.306-.337 1.87-.203-.522-.538-1.123-1.087-1.512-1.148-.812-2.781-.384-2.781-.384s.226 1.744 1.374 2.555c1.147.813 2.782.386 2.782.386l-.003-.016c.36-.1 1.643-.522 2.23-1.6.686-1.258.153-2.928.153-2.928zm10.926 0s-.532 1.671.154 2.93c.588 1.077 1.871 1.5 2.231 1.6l-.003.015s1.635.428 2.782-.384C35.774 27.303 36 25.558 36 25.558s-1.636-.428-2.783.384c-.548.39-.883.99-1.085 1.513.04-.565-.006-1.265-.337-1.872-.687-1.258-2.333-1.628-2.333-1.628zm-9.604 3.43s-1.537.718-1.96 2.096c-.24.786-.068 1.606.125 2.175-.341-.487-.886-1.093-1.636-1.328-1.327-.416-2.763.503-2.763.503s.714 1.593 2.041 2.01c1.155.361 2.335-.256 2.637-.43.591.643 1.298 1.075 2.054 1.368-.259.21-.488.461-.652.786a.945.945 0 00-.057.107l-.009.016a.964.964 0 00.18 1.041.86.86 0 001.109.124.918.918 0 00.328-.396c.085-.197.32-.39.914-.566.471-.14 1.126-.235 1.83-.333.704.098 1.359.193 1.83.333.593.176.829.37.914.566h.002c.07.162.184.3.327.396a.86.86 0 001.108-.124.95.95 0 00.179-1.04h.001l-.008-.017a.947.947 0 00-.06-.113 2.403 2.403 0 00-.65-.78c.756-.293 1.463-.725 2.054-1.369.3.174 1.48.794 2.637.432 1.327-.416 2.043-2.01 2.043-2.01s-1.436-.918-2.763-.502c-.75.235-1.297.841-1.638 1.328.193-.57.366-1.392.125-2.176-.423-1.38-1.96-2.097-1.96-2.097s-.85 1.52-.427 2.898c.12.388.328.718.564 1l-.002.001c-.905.824-2.4 1.135-3.976 1.355l-.3.042-.3-.042c-1.576-.22-3.072-.533-3.978-1.357.236-.282.447-.612.566-1 .423-1.379-.429-2.897-.429-2.897z" fill="#2C70C1"/></g><defs><clipPath id="clip0"><path fill="#fff" d="M0 0h48v48H0z"/></clipPath></defs></svg>
